src/images/svg/markets/cfds.svg

<svg width="32" height="32" viewBox="0 0 32 32" fill="none" xmlns="http://www.w3.org/2000/svg">
<path d="M26 0C29.3137 0 32 2.68627 32 5.99999V26C32 29.3137 29.3137 32 26 32H5.99999C2.68627 32 0 29.3137 0 26V5.99999C0 2.68627 2.68627 0 5.99999 0H26Z" fill="#33658A"/>
<path fill-rule="evenodd" clip-rule="evenodd" d="M27 22.5C27 20.0147 24.9853 18 22.5 18C20.0147 18 18 20.0147 18 22.5C18 24.9853 20.0147 27 22.5 27C24.9853 27 27 24.9853 27 22.5ZM25 22.5C25 21.1193 23.8807 20 22.5 20C21.1193 20 20 21.1193 20 22.5C20 23.8807 21.1193 25 22.5 25C23.8807 25 25 23.8807 25 22.5Z" fill="white"/>
<path fill-rule="evenodd" clip-rule="evenodd" d="M14 9.5C14 7.01472 11.9853 5 9.5 5C7.01472 5 5 7.01472 5 9.5C5 11.9853 7.01472 14 9.5 14C11.9853 14 14 11.9853 14 9.5ZM12 9.5C12 8.11929 10.8807 7 9.5 7C8.11929 7 7 8.11929 7 9.5C7 10.8807 8.11929 12 9.5 12C10.8807 12 12 10.8807 12 9.5Z" fill="white"/>
<path d="M24.2929 6.29289C24.6834 5.90237 25.3166 5.90237 25.7071 6.29289C26.0676 6.65338 26.0953 7.22061 25.7903 7.6129L25.7071 7.70711L7.70711 25.7071C7.31658 26.0976 6.68342 26.0976 6.29289 25.7071C5.93241 25.3466 5.90468 24.7794 6.2097 24.3871L6.29289 24.2929L24.2929 6.29289Z" fill="white"/>
</svg>

<svg width="32" height="32" fill="none" xmlns="http://www.w3.org/2000/svg"><path d="M26 0a6 6 0 016 6v20a6 6 0 01-6 6H6a6 6 0 01-6-6V6a6 6 0 016-6h20z" fill="#33658A"/><path fill-rule="evenodd" clip-rule="evenodd" d="M27 22.5a4.5 4.5 0 10-9 0 4.5 4.5 0 009 0zm-2 0a2.5 2.5 0 10-5 0 2.5 2.5 0 005 0zM14 9.5a4.5 4.5 0 10-9 0 4.5 4.5 0 009 0zm-2 0a2.5 2.5 0 10-5 0 2.5 2.5 0 005 0z" fill="#fff"/><path d="M24.293 6.293a1 1 0 011.497 1.32l-.083.094-18 18a1 1 0 01-1.497-1.32l.083-.094 18-18z" fill="#fff"/></svg>
